X: 107
Q: "With marked rhythm."
M: 4/8
L: 1/8
K: Dm
V: 1
V: 2
V: 3 clef=bass middle=d
V: 1
[| A3 A | d2 A2 | B2 G2 | A4 | A G F G | E2 F2 | D4- | D4 |
"^Chorus."d2 c d | A2 G2 | A4- | A4 | A2 G A | F2 D2 | F4- F4 |
V: 2
[| A3A & z2[F2D2] | d2A2 & z2[F2D2] | B2G2 & z2[D2B,2] | A4 & z2[F2D2] | AG FG & z2D2 | G2F2 & z2[^C2G,2] | D4- & z2[A,2F,2] | D4 & z2[A,2F,2] |
d2cd & z2[A2F2] | A2G2 & z2[E2B,2] | A4- & z2[F2C2A,2] | A4 & z2[F2C2A,2] | A2GA & z2[F2C2] | F2D2 & z2[B,2F,2] | F4- & z2[C2A,2] | F4 & z2[C2A,2] |
V: 3
[| {^G}[A4D4] | {^G}[A4D4] | {^G}[A4D4] | {^G}[A4D4] | {^G}[A4D4] | {^G}[A4D4] | {^G}[A4D4] | {^G}[A4D4] |
z2f2 & B4 | z2f2 & B4 | z2[f2c2] & F4- | z2[f2c2] & F4 | d4 | z2f2 & B4 | A4 | F2 E2 |
{^G}[A4D4] | {^G}[A4D4] | {^G}[A4D4] | {^G}[A4D4] | z2a2 & d4 | z2g2 & G4 | z2g2 & c4 | z2b2 & c4 |
[c4F4] | [c4F4] | [c4F4] | [c4F4] | [c4F4] | [c4F4] | [c4F4] | [c4F4] |
z2f2 & B4 | z2f2 & B4 |  z2[a2f2] & F4 | z2[a2f2] & D4 | z2a2& A4 | z2g2 & A4 | d4 | [A2D2]z2 |]


